X: 981
T: All White In Monaghan
R: reel
M: 4/4
K: Gmajor
|:G2GD EGDg|egdB AGED|G2GD EGDg|egdB ABG2:|
e2ed efga|bgag edBd|e2ed efga|gbag egd2|
e2ed efga|bgag edBA|G2GD EGDg|egdB ABG2||

